src/hbcore/resources/themes/icons/hbdefault/scalable/qtg_mono_alpha_mode.svg

<?xml version="1.0" encoding="UTF-8" standalone="no"?>
<!DOCTYPE svg PUBLIC "-//W3C//DTD SVG 1.1 Tiny//EN" "http://www.w3.org/Graphics/SVG/1.1/DTD/svg11-tiny.dtd">
<svg xmlns="http://www.w3.org/2000/svg" xmlns:xlink="http://www.w3.org/1999/xlink" baseProfile="tiny" height="30" viewBox="0 0 30 30" width="30">
<rect fill="none" height="30" width="30"/>
<path d="M8.898,13h2.273l-3.217-11.65h-2.531l-3.359,11.65h1.953l0.688-2.563h3.523l0.671,2.56zm-3.89-3.875l1.469-5.789,1.43,5.789h-2.899z"/>
<path d="M18.96,12.18c0.651-0.547,0.977-1.367,0.977-2.461,0-1.567-0.742-2.521-2.227-2.859,1.292-0.458,1.938-1.354,1.938-2.688,0-0.938-0.278-1.642-0.836-2.113s-1.394-0.707-2.508-0.707h-3.891v11.65h3.617c1.3,0,2.28-0.27,2.93-0.82zm-4.4-9.516h1.281c0.542,0,0.949,0.144,1.223,0.43s0.41,0.714,0.41,1.281c0,0.667-0.149,1.153-0.449,1.461s-0.77,0.461-1.41,0.461h-1.055v-3.633zm0,9.026v-4.081h1.164c0.683,0,1.184,0.164,1.504,0.492s0.48,0.836,0.48,1.523c0,0.734-0.155,1.262-0.465,1.582s-0.812,0.48-1.504,0.48h-1.177z"/>
<path d="M25.95,2.57c0.484,0,1.034,0.091,1.648,0.273v-1.366c-0.62-0.167-1.237-0.25-1.852-0.25-1.505,0-2.634,0.485-3.387,1.457s-1.129,2.426-1.129,4.363c0,2.161,0.374,3.715,1.121,4.66s1.863,1.418,3.348,1.418c0.646,0,1.278-0.083,1.898-0.25v-1.328c-0.558,0.156-1.083,0.234-1.578,0.234-0.849,0-1.485-0.372-1.91-1.117s-0.637-1.972-0.637-3.68c0-1.469,0.206-2.571,0.617-3.309s1.03-1.101,1.86-1.101z"/>
<polygon points="17,18,21,18,21,22.93,12,22.93,12,18.93,5,23.97,12,29,12,25.93,24,25.93,24,16,17,16"/>
</svg>

<?xml version="1.0" encoding="UTF-8"?>
<!DOCTYPE svg PUBLIC "-//W3C//DTD SVG 1.1 Tiny//EN" "http://www.w3.org/Graphics/SVG/1.1/DTD/svg11-tiny.dtd">
<svg baseProfile="tiny" height="30" viewBox="0 0 30 30" width="30" xmlns="http://www.w3.org/2000/svg" xmlns:xlink="http://www.w3.org/1999/xlink">
<rect fill="none" height="30" width="30"/>
<path d="M8.898,13h2.273L7.953,1.352H5.422L2.063,13h1.953l0.688-2.563h3.523L8.898,13z M5.008,9.125l1.469-5.789l1.43,5.789H5.008z "/>
<path d="M18.961,12.18c0.651-0.547,0.977-1.367,0.977-2.461c0-1.567-0.742-2.521-2.227-2.859c1.292-0.458,1.938-1.354,1.938-2.688 c0-0.938-0.278-1.642-0.836-2.113s-1.394-0.707-2.508-0.707h-3.891V13h3.617C17.333,13,18.31,12.727,18.961,12.18z M14.563,2.664 h1.281c0.542,0,0.949,0.144,1.223,0.43s0.41,0.714,0.41,1.281c0,0.667-0.149,1.153-0.449,1.461s-0.77,0.461-1.41,0.461h-1.055V2.664 z M14.563,11.688V7.609h1.164c0.683,0,1.184,0.164,1.504,0.492s0.48,0.836,0.48,1.523c0,0.734-0.155,1.262-0.465,1.582 s-0.812,0.48-1.504,0.48H14.563z"/>
<path d="M25.953,2.57c0.484,0,1.034,0.091,1.648,0.273V1.477c-0.62-0.167-1.237-0.25-1.852-0.25c-1.505,0-2.634,0.485-3.387,1.457 s-1.129,2.426-1.129,4.363c0,2.161,0.374,3.715,1.121,4.66s1.863,1.418,3.348,1.418c0.646,0,1.278-0.083,1.898-0.25v-1.328 c-0.558,0.156-1.083,0.234-1.578,0.234c-0.849,0-1.485-0.372-1.91-1.117s-0.637-1.972-0.637-3.68c0-1.469,0.206-2.571,0.617-3.309 S25.125,2.57,25.953,2.57z"/>
<polygon points="17,18 21,18 21,22.934 12,22.934 12,18.934 5,23.967 12,29 12,25.934 24,25.934 24,16 17,16 "/>
</svg>
